X:1
T:Title
%%score { ( 1 5 ) | ( 2 3 4 ) }
L:1/8
M:4/4
K:Bb
V:1 treble nm="Grand Piano"
V:5 treble 
V:2 bass 
V:3 bass 
V:4 bass 
V:1
 z4 z2[Q:1/4=88] [DF]>[CE] | [B,D]<[DF] [DF]>[EG] [DF]<[DF] [DB]>[Ec] | %2
 [Fd]>c B>G [DF]2 [DF]>[CE] | [B,D]>[DF] [DF]>[EG] [DF]>[DF] [EB]>c |[M:9/8] d>dc- c/B/ c2- cF>E | %5
[M:4/4] D>[DF] [DF]>[EG] [DF]>[DF] [DB]>[Ec] | [Fd]>c B>G [DF]2 [DF]>[DF] | %7
 G>^F G>[=FA] [GB]>[FA] [GB]>G |[M:9/8] A>FG- G/A/ [DB]2- [DB] z z |[M:4/4] [Fd]4 [Fd]2 (3[Fd]cB | %10
 [DF]6 z2 | F>E E>D E2 E>G | [EG]>[DF] [DF]>[_D=E] [=DF]2 z2 | [Fd]4 [Fd]2 (3[Fd]cB | [DF]6 z2 | %15
 [B,EG]>[B,E^F] [B,EG]>[B,FA] [B,GB]>[B,FA] [B,GB]>G | F2 B2 d2 (3AGA |[M:3/4] [DB]6 |] %18
V:2
 z4 z2 [B,,B,]>[B,,F,] | [B,,F,]<[B,,B,] [B,,B,]>[B,,B,] [B,,B,]<[B,,B,] [B,,F,]>[B,,B,] | %2
 [E,B,]>[E,G,E] [E,G,E]>[E,B,E] [B,,B,]2 [B,,B,]>[B,,F,] | %3
 [B,,F,]>[B,,B,] [B,,B,]>[B,,B,] [B,,B,]>[B,,B,] [D,B,]>[K:treble][F,A,F] | %4
[M:9/8] [B,F]>[B,F][A,CF]- [A,CF]/[K:bass][G,C=E]/ [F,A,F]2- [F,A,F][F,A,D]>[F,C] | %5
[M:4/4] [B,,F,B,]>[B,,B,] [B,,B,]>[B,,B,] [B,,B,]>[B,,B,] [B,,F,]>[B,,B,] | %6
 [E,B,]>[E,G,E] [E,G,E]>[E,B,E] [B,,B,]2 [B,,A,]>[B,,B,] | %7
 [E,B,E]>[E,A,E] [E,B,E]>[E,B,] [E,E]>[E,E] [E,E]>[E,B,E] | %8
[M:9/8] [F,E]>[F,A,E][F,E]- [F,E]/[F,E]/ [B,,F,]2- [B,,F,] z z |[M:4/4] z4 z2 B,2 | %10
 B,,2 B,,B,, B,,2 [B,,F,B,]>[B,,B,] | [F,B,D]>[F,C] [F,C]>[F,B,] [F,A,C]2 [F,A,C]>[E,A,E] | %12
 [B,,B,]>[B,,B,] [B,,B,]>[B,,B,] [B,,B,]2 z2 | z4 z2 B,2 | B,,2 B,,B,, B,,2 B,,2 | %15
 E,>E, E,>E, E,>E, E,>[E,B,E] | [F,B,D]2 [F,B,D]2 [F,B,F]2 (3:2:2[F,E]2 [F,E] |[M:3/4] [B,,F,]6 |] %18
V:3
 x8 | x8 | x8 | x15/2[K:treble] x/ |[M:9/8] x7/2[K:bass] x11/2 |[M:4/4] x8 | x8 | x8 |[M:9/8] x9 | %9
[M:4/4] [B,,B,]2 [B,,B,]2 [B,,B,]2 (3z ED | x8 | x8 | x8 | [B,,B,]2 [B,,B,]2 [B,,B,]2 (3z ED | x8 | %15
 x8 | x8 |[M:3/4] x6 |] %18
V:4
 x8 | x8 | x8 | x15/2[K:treble] x/ |[M:9/8] x7/2[K:bass] x11/2 |[M:4/4] x8 | x8 | x8 |[M:9/8] x9 | %9
[M:4/4] z4 z2 B,,2 | x8 | x8 | x8 | z4 z2 B,,2 | x8 | x8 | x8 |[M:3/4] x6 |] %18
V:5
 x8 | x8 | x8 | x8 |[M:9/8] x9 |[M:4/4] x8 | x8 | x8 |[M:9/8] x9 |[M:4/4] x8 | %10
 B,2 B,B, B,2 D>[DF] | x8 | x8 | x8 | B,2 B,B, B,2 [B,DF]2 | x8 | x8 |[M:3/4] x6 |] %18

